X:1
T:Miss Chirsty Stewart
C:Malcolm MacDonald (c 1740-1800)
B:Malcolm MacDonald "A Collection of Strathspey Reels" v.1 p.8 (1788)
B:"The Glen Collection of Scottish Dance Music", v.1 1891 p.35
M:C|
L:1/8
R:Reel
S:MacDonald \`i Collection of Strathspey Reels, vol. 1
Z:AK/Fiddlers Companion
K:C
c | (d/c/B/A/) Gc AcGc | EcGc D(dd)c | (d/c/B/A/) Gc AcGc | Aagf ecc :|
g | ecgc acgc | ecgc Bddg | ecgc acgc | egdg ecc |]
g | ecgc acgc | ecgc B(dd)c | (d/c/B/A/) Gc AcGc | A(agf) ecc |]
